web/wp-content/themes/cncf-twenty-two/images/reports/kccnc-na-22/icon-media.svg

<svg fill="none" height="18" viewBox="0 0 23 18" width="23" xmlns="http://www.w3.org/2000/svg"><g stroke="#1e1d40" stroke-linecap="round" stroke-linejoin="round" stroke-width="2.19854"><path d="m11.4538 13.8721c-.1154.4187-.3123.8105-.5792 1.153-.2669.3426-.5986.6293-.97632.8436-.37768.2144-.79389.3523-1.22485.4058-.43097.0535-.86826.0216-1.2869-.0939s-.81043-.3123-1.15301-.5792-.62923-.5987-.84359-.9764c-.21436-.3776-.35223-.7939-.40575-1.2248-.05351-.431-.02161-.8683.09388-1.2869"/><path d="m2 7.49636 19.7869-5.49636v13.1913l-19.7869-4.3971z"/></g></svg>

<svg width="23" height="18" viewBox="0 0 23 18" fill="none" xmlns="http://www.w3.org/2000/svg">
<path d="M11.4538 13.8721C11.3384 14.2908 11.1415 14.6826 10.8746 15.0251C10.6077 15.3677 10.276 15.6544 9.89828 15.8687C9.5206 16.0831 9.10439 16.221 8.67343 16.2745C8.24246 16.328 7.80517 16.2961 7.38653 16.1806C6.96789 16.0651 6.5761 15.8683 6.23352 15.6014C5.89094 15.3345 5.60429 15.0027 5.38993 14.625C5.17557 14.2474 5.0377 13.8311 4.98418 13.4002C4.93067 12.9692 4.96257 12.5319 5.07806 12.1133" stroke="#1E1D40" stroke-width="2.19854" stroke-linecap="round" stroke-linejoin="round"/>
<path d="M2 7.49636L21.7869 2V15.1913L2 10.7942V7.49636Z" stroke="#1E1D40" stroke-width="2.19854" stroke-linecap="round" stroke-linejoin="round"/>
</svg>
